_includes/icons/color-book.svg

<svg fill="#666" height="50" viewBox="0 0 48 48" width="50" xmlns="http://www.w3.org/2000/svg"><path d="m38 5-24-.003906c-2.207031 0-4.816406 1.070312-4.984375 6.003906h-.015625v28l.019531-.054687c.179688 3.640625 2.546875 4.054687 3.585938 4.054687h23.394531 1c2 0 2-2 2-2v-35c0-.554687-.445312-1-1-1z" fill="#7e57c2"/><path d="m36 36h-23.394531c-1.332031 0-1.605469 1.117188-1.605469 2.5 0 1.382813.273438 2.503906 1.605469 2.503906l23.394531-.003906z" fill="#ffe0b2"/><path d="m12.605469 36c-1.164063 0-1.519531.859375-1.589844 2h24.984375v-2z" fill="#e0b990"/><path d="m14 10.996094h21v5h-21z" fill="#ffecb3"/><path d="m38 36h-2v7h1c2 0 2-2 2-2v-5.996094c0 .550782-.445312.996094-1 .996094z" fill="#311b92"/></svg>

<svg xmlns="http://www.w3.org/2000/svg" viewBox="0 0 48 48" width="50" height="50" fill="#666"><path d="M 38 5 L 14 4.996094 C 11.792969 4.996094 9.183594 6.066406 9.015625 11 L 9 11 C 9 11 9 30.824219 9 39 L 9.019531 38.945313 C 9.199219 42.585938 11.566406 43 12.605469 43 L 36 43 C 36.1875 43 36.5 43 37 43 C 39 43 39 41 39 41 L 39 6 C 39 5.445313 38.554688 5 38 5 Z" fill="#7e57c2"/><path d="M 36 36 L 12.605469 36 C 11.273438 36 11 37.117188 11 38.5 C 11 39.882813 11.273438 41.003906 12.605469 41.003906 L 36 41 Z" fill="#ffe0b2"/><path d="M 12.605469 36 C 11.441406 36 11.085938 36.859375 11.015625 38 L 36 38 L 36 36 Z" fill="#e0b990"/><path d="M 14 10.996094 L 35 10.996094 L 35 15.996094 L 14 15.996094 Z" fill="#ffecb3"/><path d="M 38 36 L 36 36 L 36 43 C 36.1875 43 36.5 43 37 43 C 39 43 39 41 39 41 L 39 35.003906 C 39 35.554688 38.554688 36 38 36 Z" fill="#311b92"/></svg>
